src/css/fonts/SVGs/iota_icons/chronicle_icon.svg

<svg width="48" height="48" xmlns="http://www.w3.org/2000/svg" fill="none">
 <g>
  <path stroke="null" id="svg_1" fill="black" d="m20.90268,9.92206c2.52521,-1.49629 5.69166,-1.49629 8.21687,0l6.00638,3.55905c0.58609,0.34728 1.11582,0.76233 1.5812,1.23138c0.35323,0.35606 0.25376,0.93439 -0.16729,1.20685c-0.36535,0.23636 -0.84585,0.15538 -1.16133,-0.14432c-0.33297,-0.31633 -0.70546,-0.59914 -1.11354,-0.84095l-6.00634,-3.55903c-0.65289,-0.38686 -1.36067,-0.64707 -2.08736,-0.78064c-0.24709,-0.04542 -0.46559,0.15137 -0.46559,0.40263l0,2.54323c0,0.21221 0.158,0.38967 0.36607,0.4313c0.58381,0.11687 1.15196,0.33124 1.67835,0.64314l4.00423,2.3727c0.23341,0.13828 0.45343,0.29273 0.65884,0.46132c0.40348,0.33107 0.31013,0.94013 -0.12806,1.22365c-0.35277,0.22826 -0.8127,0.16133 -1.15656,-0.0801c-0.07587,-0.05328 -0.15428,-0.10399 -0.23518,-0.15192l-4.00423,-2.3727c-1.15259,-0.68295 -2.60345,-0.68295 -3.75604,0l-4.00423,2.3727c-1.07778,0.63862 -1.71783,1.7679 -1.71783,2.96606l0,5.18714c0,1.19815 0.64005,2.32744 1.71783,2.96606l4.00423,2.37266c1.15259,0.68299 2.60345,0.68299 3.75604,0l4.00423,-2.37266c0.05502,-0.0326 0.10889,-0.0665 0.16163,-0.10159c0.34082,-0.22699 0.78703,-0.28673 1.13275,-0.0673c0.45195,0.28682 0.54417,0.91429 0.12198,1.24329c-0.17535,0.13663 -0.36071,0.26322 -0.5554,0.37857l-4.00423,2.3727c-1.6835,0.99751 -3.79447,0.99751 -5.47797,0l-4.00423,-2.3727c-0.5543,-0.32845 -1.03293,-0.74781 -1.42079,-1.23189c-0.13372,-0.16686 -0.36615,-0.22576 -0.5554,-0.12616l-2.21864,1.16771c-0.21714,0.1143 -0.29246,0.38988 -0.14731,0.58774c0.48062,0.65517 1.09871,1.22171 1.8315,1.65593l6.00638,3.55903c1.9943,1.18173 4.50064,1.18173 6.49498,0l6.00634,-3.55903c0.39195,-0.23222 0.7511,-0.50237 1.07389,-0.80362c0.31409,-0.29311 0.78703,-0.37236 1.14972,-0.14216c0.4289,0.27217 0.53023,0.85915 0.16927,1.21656c-0.45339,0.44891 -0.96639,0.84711 -1.53192,1.18219l-6.00638,3.55903c-2.52521,1.49633 -5.69166,1.49633 -8.21687,0l-6.00638,-3.55903c-2.37067,-1.40471 -3.81866,-3.91818 -3.81866,-6.62853l0,-7.78071c0,-2.71036 1.44799,-5.22383 3.81866,-6.62853l6.00638,-3.55905zm2.62992,0.73927c0.25228,-0.05978 0.48417,0.13915 0.48417,0.39841l0,2.54846c0,0.20326 -0.14529,0.37587 -0.34221,0.4262c-0.48666,0.12435 -0.95934,0.31777 -1.40243,0.58031l-4.00423,2.3727c-1.58044,0.93646 -2.54577,2.6121 -2.54577,4.41902l0,5.18714c0,0.34762 0.03572,0.69042 0.10471,1.02403c0.04024,0.1946 -0.04539,0.39698 -0.22125,0.48953l-2.15713,1.13532c-0.23781,0.12515 -0.53124,-0.00093 -0.58081,-0.26503c-0.06674,-0.35564 -0.10112,-0.71931 -0.10112,-1.08706l0,-7.78071c0,-2.10163 1.12271,-4.0687 2.99071,-5.17557l6.00638,-3.55903c0.55713,-0.33013 1.15424,-0.56803 1.76896,-0.71371z" clip-rule="evenodd" fill-rule="evenodd"/>
  <path stroke="null" id="svg_2" fill="black" d="m26.55719,19.4164c-0.82219,-0.48719 -1.85315,-0.48719 -2.67535,0l-1.9556,1.15877c-0.77188,0.45737 -1.24331,1.27573 -1.24331,2.15818l0,2.53331c0,0.88245 0.47143,1.70081 1.24331,2.15818l1.9556,1.15877c0.82219,0.48719 1.85315,0.48719 2.67535,0l1.9556,-1.15877c0.77188,-0.45737 1.24331,-1.27573 1.24331,-2.15818l0,-2.53331c0,-0.88245 -0.47143,-1.70081 -1.24331,-2.15818l-1.9556,-1.15877zm1.11464,2.57798l-1.9556,-1.15877c-0.30366,-0.17994 -0.68977,-0.17994 -0.99343,0l-1.9556,1.15877c-0.2809,0.16645 -0.4346,0.4511 -0.4346,0.73897l0,2.53331c0,0.28787 0.15371,0.57252 0.4346,0.73897l1.9556,1.15877c0.30366,0.17994 0.68977,0.17994 0.99343,0l1.9556,-1.15877c0.2809,-0.16645 0.4346,-0.4511 0.4346,-0.73897l0,-2.53331c0,-0.28787 -0.15371,-0.57252 -0.4346,-0.73897z" clip-rule="evenodd" fill-rule="evenodd"/>
 </g>
</svg>

<svg width="48" height="48" viewBox="0 0 48 48" fill="none" xmlns="http://www.w3.org/2000/svg">
    <path d="M20.9027 9.92205C23.4279 8.42576 26.5943 8.42576 29.1196 9.92205L35.1259 13.4811C35.712 13.8284 36.2418 14.2434 36.7071 14.7125C37.0604 15.0685 36.9609 15.6469 36.5398 15.9193C36.1745 16.1557 35.694 16.0747 35.3785 15.775C35.0455 15.4587 34.6731 15.1759 34.265 14.9341L28.2586 11.375C27.6057 10.9882 26.898 10.728 26.1713 10.5944C25.9242 10.549 25.7057 10.7458 25.7057 10.997V13.5403C25.7057 13.7525 25.8637 13.9299 26.0718 13.9716C26.6556 14.0884 27.2237 14.3028 27.7501 14.6147L31.7543 16.9874C31.9877 17.1257 32.2078 17.2801 32.4132 17.4487C32.8167 17.7798 32.7233 18.3888 32.2851 18.6724C31.9323 18.9006 31.4724 18.8337 31.1286 18.5923C31.0527 18.539 30.9743 18.4883 30.8934 18.4403L26.8891 16.0676C25.7366 15.3847 24.2857 15.3847 23.1331 16.0676L19.1289 18.4403C18.0511 19.079 17.411 20.2082 17.411 21.4064V26.5935C17.411 27.7917 18.0511 28.921 19.1289 29.5596L23.1331 31.9323C24.2857 32.6153 25.7366 32.6153 26.8891 31.9323L30.8934 29.5596C30.9484 29.527 31.0023 29.4931 31.055 29.458C31.3958 29.231 31.842 29.1713 32.1878 29.3907C32.6397 29.6775 32.7319 30.305 32.3097 30.634C32.1344 30.7706 31.949 30.8972 31.7543 31.0126L27.7501 33.3853C26.0666 34.3828 23.9556 34.3828 22.2721 33.3853L18.2679 31.0126C17.7136 30.6841 17.235 30.2648 16.8471 29.7807C16.7134 29.6138 16.481 29.5549 16.2917 29.6545L14.0731 30.8222C13.8559 30.9365 13.7806 31.2121 13.9258 31.41C14.4064 32.0651 15.0245 32.6317 15.7573 33.0659L21.7636 36.6249C23.7579 37.8067 26.2643 37.8067 28.2586 36.6249L34.265 33.0659C34.6569 32.8337 35.0161 32.5635 35.3389 32.2623C35.6529 31.9692 36.1259 31.8899 36.4886 32.1201C36.9175 32.3923 37.0188 32.9793 36.6578 33.3367C36.2045 33.7856 35.6915 34.1838 35.1259 34.5189L29.1195 38.0779C26.5943 39.5742 23.4279 39.5742 20.9027 38.0779L14.8963 34.5189C12.5256 33.1142 11.0776 30.6007 11.0776 27.8903V20.1096C11.0776 17.3993 12.5256 14.8858 14.8963 13.4811L20.9027 9.92205H20.9027ZM23.5326 10.6613L23.5326 10.6613C22.9179 10.807 22.3208 11.0449 21.7636 11.375L15.7572 14.9341C13.8892 16.0409 12.7665 18.008 12.7665 20.1096V27.8904C12.7665 28.2581 12.8009 28.6218 12.8677 28.9774C12.9172 29.2415 13.2107 29.3676 13.4485 29.2424L15.6056 28.1071C15.7815 28.0146 15.8671 27.8122 15.8268 27.6176C15.7579 27.284 15.7221 26.9412 15.7221 26.5936V21.4064C15.7221 19.5995 16.6875 17.9239 18.2679 16.9874L22.2721 14.6147C22.7152 14.3522 23.1879 14.1587 23.6746 14.0344C23.8715 13.9841 24.0168 13.8115 24.0168 13.6082V11.0597C24.0168 10.8005 23.7849 10.6015 23.5326 10.6613Z" fill="black" stroke="black"/>
    <path fill-rule="evenodd" clip-rule="evenodd" d="M26.5572 19.4164C25.735 18.9292 24.704 18.9292 23.8818 19.4164L21.9262 20.5752C21.1544 21.0325 20.6829 21.8509 20.6829 22.7333V25.2666C20.6829 26.1491 21.1544 26.9675 21.9262 27.4248L23.8818 28.5836C24.704 29.0708 25.735 29.0708 26.5572 28.5836L28.5128 27.4248C29.2847 26.9675 29.7561 26.1491 29.7561 25.2666V22.7333C29.7561 21.8509 29.2847 21.0325 28.5128 20.5752L26.5572 19.4164ZM27.6718 21.9944L25.7162 20.8356C25.4126 20.6557 25.0265 20.6557 24.7228 20.8356L22.7672 21.9944C22.4863 22.1608 22.3326 22.4455 22.3326 22.7333V25.2666C22.3326 25.5545 22.4863 25.8392 22.7672 26.0056L24.7228 27.1644C25.0265 27.3443 25.4126 27.3443 25.7162 27.1644L27.6718 26.0056C27.9527 25.8392 28.1064 25.5545 28.1064 25.2666V22.7333C28.1064 22.4455 27.9527 22.1608 27.6718 21.9944Z" fill="black" stroke="black"/>
</svg>
